images/print-icon_15x13.svg

<svg xmlns="http://www.w3.org/2000/svg" viewBox="0 0 15 13" enable-background="new 0 0 15 13"><path fill-rule="evenodd" clip-rule="evenodd" fill="#4D4D4D" d="M0 3v4h15v-4h-2v2h-11v-2h-2zm15 8v-3h-15v3h2v-2h11v2h2zm-12-11v4h9v-4h-9zm0 10v3h9v-3h-9z"/></svg>

<svg xmlns="http://www.w3.org/2000/svg" viewBox="0 0 15 13" enable-background="new 0 0 15 13"><path fill-rule="evenodd" clip-rule="evenodd" fill="#4D4D4D" d="M0 3v4h15V3h-2v2H2V3H0zm15 8V8H0v3h2V9h11v2h2zM3 0v4h9V0H3zm0 10v3h9v-3H3z"/></svg>
